kiosk-igrinskij/images/88c2719130be88d23e66217e6ce93ad6.svg

<svg fill="none" height="16" viewBox="0 0 17 16" width="17" xmlns="http://www.w3.org/2000/svg"><g fill="#f1e9dd"><path d="m10.4308 10.0483-3.05351.2936c-.3494.0335-.61572.3192-.61572.6605v.552h-1.15865c-.48232 0-.87335.3801-.87335.8489s.39103.8488.87335.8488h1.15865v.552c0 .3413.26626.627.61572.6605l3.05361.2936c.679.7599 1.6792 1.2418 2.7935 1.2418 2.0405 0 3.7006-1.6135 3.7006-3.5967 0-1.9833-1.6601-3.59685-3.7006-3.59685-1.1144 0-2.1146.48193-2.7936 1.24185zm4.7719 2.3549c0 1.0603-.8874 1.9228-1.9783 1.9228-1.0908 0-1.9783-.8625-1.9783-1.9228 0-1.0602.8875-1.9228 1.9783-1.9228 1.0909 0 1.9783.8626 1.9783 1.9228z"/><path d="m11.2572.560729c-.8347.514641-1.41331 1.314391-1.62914 2.251881-.01939.0841-.03447.16836-.04763.25274l-2.41482 1.83599c-.27656.2103-.34399.59014-.15593.87836l.31074.47616-.97844.6032c-.40157.24754-.52064.76478-.26591 1.15509.25473.39037.78683.50604 1.1884.25845l.97845-.6032.31074.47616c.18806.28822.57036.39082.88395.23728l2.73809-1.3407c.0841.02439.169.04708.2555.06587.9646.20978 1.9555.04193 2.7902-.47265.8347-.51459 1.4133-1.31433 1.6291-2.25183.0607-.26349.0907-.5289.0907-.7925 0-.67429-.1963-1.33618-.5769-1.91953-.5294-.811289-1.3522-1.373581-2.3168-1.5834221-.9647-.2097849-1.9556-.0419349-2.7903.4726511zm2.414 1.160861c.5156.11216.9555.41283 1.2386.84655.283.43371.3755.94858.2599 1.44981-.1154.50118-.4247.92872-.8709 1.20381-.4463.27509-.976.36479-1.4916.25268-.5156-.11216-.9555-.41283-1.2385-.84655-.208-.31872-.3072-.67468-.3072-1.02679 0-.63705.3249-1.26114.9181-1.62689.4463-.27503.976-.36473 1.4916-.25262z"/><path d="m4.02315 12.4509c.03278-.092.04827-.1857.04827-.2778 0-.3517-.22666-.6805-.58783-.8021l-1.32452-.4458c-.45578-.1534-.95324.0814-1.11109.5244-.157839.4432.08373.9265.53956 1.08l1.32453.4457c.45578.1534.95324-.0814 1.11108-.5244z"/><path d="m1.44722 7.63604c-.464736-.12546-.946187.13905-1.075269.59076l-.339909 1.18944c-.1289653.45165.142939.91966.607738 1.04516.46474.1254.94619-.1391 1.07527-.59073l.33991-1.1895c.02172-.07606.03208-.1524.03208-.22761 0-.37186-.25327-.71316-.63982-.81752z"/><path d="m5.32789 7.74521c0-.46881-.39103-.84887-.87336-.84887h-1.10625c-.48232 0-.87335.38006-.87335.84887 0 .4688.39103.84887.87335.84887h1.10625c.48233 0 .87336-.38007.87336-.84887z"/></g></svg>

<svg width="17" height="16" viewBox="0 0 17 16" fill="none" xmlns="http://www.w3.org/2000/svg">
<path d="M10.4308 10.0483L7.37729 10.3419C7.02789 10.3754 6.76157 10.6611 6.76157 11.0024L6.76157 11.5544L5.60292 11.5544C5.1206 11.5544 4.72957 11.9345 4.72957 12.4033C4.72957 12.8721 5.1206 13.2521 5.60292 13.2521L6.76157 13.2521L6.76157 13.8041C6.76157 14.1454 7.02783 14.4311 7.37729 14.4646L10.4309 14.7582C11.1099 15.5181 12.1101 16 13.2244 16C15.2649 16 16.925 14.3865 16.925 12.4033C16.925 10.42 15.2649 8.80645 13.2244 8.80645C12.11 8.80645 11.1098 9.28838 10.4308 10.0483ZM15.2027 12.4032C15.2027 13.4635 14.3153 14.326 13.2244 14.326C12.1336 14.326 11.2461 13.4635 11.2461 12.4032C11.2461 11.343 12.1336 10.4804 13.2244 10.4804C14.3153 10.4804 15.2027 11.343 15.2027 12.4032Z" fill="#F1E9DD"/>
<path d="M11.2572 0.560729C10.4225 1.07537 9.84389 1.87512 9.62806 2.81261C9.60867 2.89671 9.59359 2.98097 9.58043 3.06535L7.16561 4.90134C6.88905 5.11164 6.82162 5.49148 7.00968 5.7797L7.32042 6.25586L6.34198 6.85906C5.94041 7.1066 5.82134 7.62384 6.07607 8.01415C6.3308 8.40452 6.8629 8.52019 7.26447 8.2726L8.24292 7.6694L8.55366 8.14556C8.74172 8.43378 9.12402 8.53638 9.43761 8.38284L12.1757 7.04214C12.2598 7.06653 12.3447 7.08922 12.4312 7.10801C13.3958 7.31779 14.3867 7.14994 15.2214 6.63536C16.0561 6.12077 16.6347 5.32103 16.8505 4.38353C16.9112 4.12004 16.9412 3.85463 16.9412 3.59103C16.9412 2.91674 16.7449 2.25485 16.3643 1.6715C15.8349 0.860211 15.0121 0.297919 14.0475 0.0880779C13.0828 -0.121707 12.0919 0.046143 11.2572 0.560729ZM13.6712 1.72159C14.1868 1.83375 14.6267 2.13442 14.9098 2.56814C15.1928 3.00185 15.2853 3.51672 15.1697 4.01795C15.0543 4.51913 14.745 4.94667 14.2988 5.22176C13.8525 5.49685 13.3228 5.58655 12.8072 5.47444C12.2916 5.36228 11.8517 5.06161 11.5687 4.62789C11.3607 4.30917 11.2615 3.95321 11.2615 3.6011C11.2615 2.96405 11.5864 2.33996 12.1796 1.97421C12.6259 1.69918 13.1556 1.60948 13.6712 1.72159Z" fill="#F1E9DD"/>
<path d="M4.02315 12.4509C4.05593 12.3589 4.07142 12.2652 4.07142 12.1731C4.07142 11.8214 3.84476 11.4926 3.48359 11.371L2.15907 10.9252C1.70329 10.7718 1.20583 11.0066 1.04798 11.4496C0.890141 11.8928 1.13171 12.3761 1.58754 12.5296L2.91207 12.9753C3.36785 13.1287 3.86531 12.8939 4.02315 12.4509Z" fill="#F1E9DD"/>
<path d="M1.44722 7.63604C0.982484 7.51058 0.501033 7.77509 0.371951 8.2268L0.032042 9.41624C-0.0969233 9.86789 0.174981 10.3359 0.63978 10.4614C1.10452 10.5868 1.58597 10.3223 1.71505 9.87067L2.05496 8.68117C2.07668 8.60511 2.08704 8.52877 2.08704 8.45356C2.08704 8.0817 1.83377 7.7404 1.44722 7.63604Z" fill="#F1E9DD"/>
<path d="M5.32789 7.74521C5.32789 7.2764 4.93686 6.89634 4.45453 6.89634L3.34828 6.89634C2.86596 6.89634 2.47493 7.2764 2.47493 7.74521C2.47493 8.21401 2.86596 8.59408 3.34828 8.59408L4.45453 8.59408C4.93686 8.59408 5.32789 8.21401 5.32789 7.74521Z" fill="#F1E9DD"/>
</svg>
